X:6347
T:Sur los can d'en douno
O:england
C:MCTB 2/39
M:3/8
L:1/16
K:C
cd|e4e2|ede2f2|g4f2|e2c2cd|\
e4e2|ede2f2|g2f2e2|d4:|
|:Bc|d4ed|cde2f2|e4d2|c2B2c2|\
d4ed|cde2f2|e4d2|c4:|


